X: 1
T:Soldier's Joy
M:4/4
L:1/8
K:D
|:FG|AFDF AFDF|A2d2d2cB|AFDF AFDF|
G2E2E2FG|AFDF AFDF|A2d2d2g2|fafd egec|
d2d2d2:|
|:de|f2fd fagf|e2ec egfe|f2fd fagf|
edcB A2de|fdfd fagf|ecec egfe|fafd egec|
d2d2d2:|
